X:745
T:Jack Broke Da Prison Door
C:Joe Buchanan's Scottish Tome - Page 186.1
I:186 1
Z:Carl Allison
R:Shetland Reel
L:1/8
M:4/4
K:G
D | G2 BG BdBG | vcB(GB) udBA(B | G2) BG BdBG | ABAG E2 D :|
d | [gB]2 gd edB(G | g2) gd e(aa)(f |g2) (gd) efBG | ABAG E2 D :|

